/* XPM */
/* GENERATED -- do not edit. Derived from
   dottalkpp/docs/media/x64base_identity_2026_07_12/05-x64-smiling-database-site-icon.jpg
   by the recipe in src/gui/wx/res/README.md (AIF-120 R91). */
static const char *const x64base_48_xpm[] = {
"48 48 64 1",
"a c #22F9F6",
"b c #1FEFF0",
"c c #25E4ED",
"d c #1DE6EB",
"e c #28D7E6",
"f c #1DD8E9",
"g c #27C8E7",
"h c #1ECBE2",
"i c #23BDDF",
"j c #27B1DE",
"k c #27A6D7",
"l c #1EA3D7",
"m c #2396AF",
"n c #268BA6",
"o c #257E9B",
"p c #276D85",
"q c #255E77",
"r c #255066",
"s c #254258",
"t c #2B384E",
"u c #1F344A",
"v c #232E42",
"w c #202D42",
"x c #1F2A40",
"y c #1C2C43",
"z c #1C2A41",
"A c #1F293F",
"B c #1D2941",
"C c #1D2840",
"D c #1D283E",
"E c #1C2840",
"F c #1C283E",
"G c #1B2940",
"H c #1A283C",
"I c #1C273F",
"J c #1C263F",
"K c #1D273B",
"L c #1B273E",
"M c #1B263D",
"N c #1B263A",
"O c #1A263D",
"P c #1A263A",
"Q c #1E2439",
"R c #1B2338",
"S c #1A253A",
"T c #1A243D",
"U c #1A2438",
"V c #1A2236",
"W c #19263A",
"X c #192438",
"Y c #192337",
"Z c #172236",
"0 c #1A2135",
"1 c #192135",
"2 c #1A2132",
"3 c #192033",
"4 c #1A1E34",
"5 c #172034",
"6 c #161E31",
"7 c #1A1C32",
"8 c #1A1A32",
"9 c #171B2F",
"+ c #16182A",
"@ c #0F1221",
"XZZYYX56Attsttttttttttttttttttstttsssstv561XZXSX",
"YZXYZ6xttuwBMMMSOJTTTMOOOOOOLMFCMMOMFxutsv65ZYXX",
"ZZY56ttvMMExxxCJCxCCAxBxAIBBBACxABBBACMMyttY5YYY",
"YXZZttSMIBBDICCCxwxzLTYVSIBCGyyxxBBACBBBBSusN5XY",
"XPZttXDCICxCCzwF588QvtssuKExQ784OzwACCDCIDMvtZYZ",
"X6vtSxMICICBLV7vrpmieccap4Ekemorv74OyAMLDCyFut6Y",
"5NtTCDDMMzL8Qqmeaaaabbbaq7scaaaaempv8MzLACEBTtw6",
"6vvMADIMz5Qpgaabbbaaaaads7qadbbdbaaeov9zCJJCDBt6",
"YtTIJJMG4rgabdbaadimoqqsz4nabfhaabdbaeq7CCIAAStA",
"xuTJIJG7paadbaemruR8844JyRiban0rohaadban0FJCBPuu",
"vuOOEy4qaddahpy84JBzyyzzTuebaq8V8Fqkbbdan9BIBLwt",
"uyJIEOwebbboP4IyyELIFEDz4rbdduTyyB44qfbdcr0DDDxt",
"tzEJF7padbq8ByBBBBCIOOEy8oabiNFBEByy8rcdan8zMDCt",
"txELz8nabkRyGLBBCMIEEIEz0kbbm8zBELFzu8mbbkVBCCJu",
"vCEEy8mbbm+LyBBBEIMILBBTuedbp7zBBLOGy7obdkRICIOv",
"vJMIy8mbdeov8YGzyzEBBBz4rcddsRyEEBGOy7obdkSECCLu",
"vCJDz7mbfdbenrQ74ZTOLGy7pbdhyIBEEGGGz8obdkREEDFv",
"vDMFG7mbfcfdbcinprtvxQB7pbciLCGGzGzGy7ocdlVEGFIu",
"vDHOG7mbfecbffdbcceeigq+pcfeuTyyyyyzy4ocfmYGGBJu",
"vAILG7nccmsmhbbcfffffbp+sefco+5Z55ZZZ+pcfmYOLLLv",
"vAKMG8nddm+0uqnihccccap7OmcfcnrrrrrrrsnffmVLPIIv",
"vLFLL7nddm4yS78SurqponrSSrfffccceeeeeeehfmRFLIIv",
"vLMNG8ncdm7yGGzGTV4748REz4qecffffhhhhhhhfmRGECLv",
"vFSME9ncdm9GEELGyzGyyzHLLz4smihheffhhhhhfmRGEDMv",
"vFPOG9ncfm7HIAK79RKNLKNODKH96usssssssuoffmYBNDIv",
"vFSOG9nffn7zRukmnuXFFNKNDKwsvQVZ1VVXO+pfgmVMLKNv",
"vNWMG8nffn7GTuhfcr4FHHSKFRsgiksYGHLGy7pfgm1KNKNv",
"vUSNH9offn7GSuihhr4HOMMSFRshhfs4HNNOH9pggm1NNKSv",
"xSNSH+nffn7GRyiheq6GNKNPH5sghiu0HKKLH9pggm1KSPSw",
"xSXSH9nffn9HPYlhfm+WFFHFH+oghiyRMMNOG7pggm1HNNKv",
"vNUXH9offn9HH+ofigov7997Qpgigm7HNNSNF9pggm5WSSXv",
"vSUYP+oggn9HH1uigigjnoonkgiigs0KNNMNH9pgim5WXWXx",
"vSZVU+oggn9HWF7rggiiggggiiggq9HSXPSSH9pgim5NSPWv",
"vNVRN+oggn9HPPH9smgggiiigglr9WXUSSXSL9piim3PSSSw",
"vR5RK+oggn9NXPNM2ZsommmmorX7NXUNNSXSH9pijm3XXXUv",
"vR5RN+pgik2WNWSSPP9+9Z16+9RNSSSSUUXSO+njjn9WUV3A",
"ARVRK9rgjgp+ZWPUUYWWWSSPWPUYXXXUYUSZ@rjljq+HUU0x",
"QKVNSV6mijgox+6WSXSXXPUXSUXYYYXPX5+Qpjjjly3XXVUA",
"2K3VYY9ujjjgkpu7+9ZWWNHMHXPHWY6++vpkjljjq+PY1VKK",
"9A5V10Y+slijjgjnqtK9++++++++7Ktqnkjlljjq9UVVVVA2",
"@KVVVV1W+ynjjlljjjkmoppqqqponkkjjlljjmu+Y010V5v@",
"@2A3V1VVY7+snkjjllljjjjjjjjjjlllljlmr99S10VV2KQ@",
"@@vVV1110VV9+uqmljjjjjllllllljjlmpu9+3Y11V106v+@",
"@@9v6V1VV01V19+9yrqonmlllllmopry6+9311033323A2@@",
"@@@2A631V10311Y19+++96ZWOW59+++91RV30333036AK@@@",
"+@@@2A5600V01030VRYV03379011UUV11VV0331163AQ@@@@",
"+@@@@+AK332333333323331VVV03V00332100033RK9@@@@@",
"+@@@@@@2KK2330333333333633333030V23003RxV@@@@@@@"
};
