/* XPM */
/* GENERATED -- do not edit. Derived from
   dottalkpp/docs/media/x64base_identity_2026_07_12/05-x64-smiling-database-site-icon.jpg
   by the recipe in src/gui/wx/res/README.md (AIF-120 R91). */
static const char *const x64base_16_xpm[] = {
"16 16 48 1",
"a c #23E9E7",
"b c #24D8DF",
"c c #24CBD7",
"d c #20C5D2",
"e c #20BFCE",
"f c #21B7D0",
"g c #21ADD4",
"h c #23A6C2",
"i c #249DBC",
"j c #2287AA",
"k c #207BA1",
"l c #26798B",
"m c #20739A",
"n c #226D8D",
"o c #206476",
"p c #1F576C",
"q c #1B516E",
"r c #1D4A5F",
"s c #1D445A",
"t c #1E4057",
"u c #203A50",
"v c #233148",
"w c #1A3349",
"x c #212E44",
"y c #1F2B41",
"z c #1E2940",
"A c #1A2C43",
"B c #1A293F",
"C c #1F283F",
"D c #1D283D",
"E c #1B273C",
"F c #1C2639",
"G c #1B263A",
"H c #1C2437",
"I c #1A263B",
"J c #192337",
"K c #1A2136",
"L c #1A2233",
"M c #182135",
"N c #1C1E33",
"O c #1E1C33",
"P c #1B1B32",
"Q c #191A2D",
"R c #1A172A",
"S c #181524",
"T c #131725",
"U c #161325",
"V c #190B1F",
"MGxvvCHOyDCvvvGJ",
"GxyNOuolwptOPyvG",
"zzNocabepaacoKzx",
"xPlajtBUldwlalPx",
"yHboVNBPijRRobzz",
"zEdclrvFdoPKsdAC",
"zIeiebboiiuuodBC",
"DIerUArwtfcccfAC",
"DIerrnPEDptwpfBD",
"FJfsodQUucwRsgBF",
"FJgrBfimgjKKrgBF",
"FLgrUukjnEIRtgIF",
"FQkgtQVVVRNuhkQF",
"LKMmgijmmkigkJLH",
"THLRAqmjjmqASLHT",
"TTLHQSSSSSSPJHTT"
};
