/* XPM */
/* GENERATED -- do not edit. Derived from
   dottalkpp/docs/media/x64base_identity_2026_07_12/05-x64-smiling-database-site-icon.jpg
   by the recipe in src/gui/wx/res/README.md (AIF-120 R91). */
static const char *const x64base_32_xpm[] = {
"32 32 64 1",
"a c #1EFEFD",
"b c #22F6F7",
"c c #1FEBF5",
"d c #23E1EC",
"e c #24D6ED",
"f c #23CEE7",
"g c #24C6DF",
"h c #22BCDC",
"i c #23B2EB",
"j c #25B1BD",
"k c #24A4DE",
"l c #1FA5B3",
"m c #259ABA",
"n c #2291B2",
"o c #27839D",
"p c #257288",
"q c #21687F",
"r c #225E74",
"s c #1F5168",
"t c #21455F",
"u c #28384E",
"v c #1B3B53",
"w c #27344B",
"x c #223349",
"y c #232F44",
"z c #202D42",
"A c #202C40",
"B c #1C2D44",
"C c #1C2B42",
"D c #1F2A3E",
"E c #1D2940",
"F c #1B2A40",
"G c #1D2840",
"H c #1C2840",
"I c #1E273B",
"J c #1C273D",
"K c #1D263C",
"L c #1B283E",
"M c #1B273E",
"N c #1B263C",
"O c #1A263B",
"P c #1C2439",
"Q c #1B253C",
"R c #1A2539",
"S c #1C2337",
"T c #1A2236",
"U c #192438",
"V c #182337",
"W c #182236",
"X c #1C2037",
"Y c #1A2035",
"Z c #192134",
"0 c #192034",
"1 c #1C1E36",
"2 c #1A1E33",
"3 c #191D32",
"4 c #172034",
"5 c #181D30",
"6 c #1B1B32",
"7 c #191C31",
"8 c #1A192F",
"9 c #171B2D",
"+ c #151728",
"@ c #0F1220",
"VVV4RyuuwwwwwwwwwwwwuwwuuuwO4WUR",
"VV4AuyEHJJQEHFHHQMCFFGNMJExuy4VV",
"U4ywJQEECCQ16611KE161QBzEGHMww4V",
"4DwOJGCH11wrpnjjsPooruX3HEHGMwz4",
"4yMEJE2Prjdbaaaatubabdjqz3FGGMwU",
"DzQGH6rgbaadjlopXrbddaabgq1HGJzy",
"yEMC2pbaclqvQ16X6oalLrldabo1HEEw",
"xHEYsbbjt11QHCBCPjap8X1vlcbq6CGw",
"yHF6lajQXBBEHMHQudcsXBBQ6lajXEJy",
"yHF1jap+CCBEJHC1rbgBJEMB1rbhMGMz",
"yMEXjcgpy63UQMB6oalXCGFF2rcjMHHy",
"zJEYjccbgnqtuyz2nao1BCCB1rcjNHLz",
"yLL1lcjgbbcdfgjXobj8VUVQ8rcjOMMz",
"zJH2lbqCplhedcdJsddottttupcjOOMz",
"DNL2lcp801BvsrrBXncdeeeeefejNLHz",
"AOJ2lcq3BRWX112MMOohffffggfjQHMA",
"AOL2lcq7HttzLFFNEI+VvvvvxqejQJJA",
"ARL2lcq2Yndp7FNNPvmoB0TQ8sejRKNA",
"DRN5lcq3Yncp6FJLPvfevTLF3rejRROD",
"IRO3lcq33oem84VU+rfhBSNL3remROOD",
"DRR3neq52sefouxurhen2JNL7semVRUD",
"DVU9neq9L0oeeghhfehvZOON7sfmURRD",
"DTP7neq8LRZqmhfhkox5ORRO2simVRRD",
"DZP9nep+FJR9UvtvF9YORORL+rin4RTI",
"ISK9qfkt+4OOO032TORROR4+ukip9OVI",
"SSUZUmihou3+94UUV449+9xpkikBZUSI",
"ZPZT5BniiknqtuADDAxtqokiimv5UZPS",
"+IZTU55rmiiiikkkkkkiiiimqW5VT0I+",
"@ZI4ZTZ+4tpnkkiiiikknpsV+ZWZ0ST@",
"@@ST3TTT09+5FvttstvC5+92WZZ5TI@@",
"+@@TP0ZYZWTZ599++992ZTSTZ04SS@@@",
"+@@@9PS20Z00ZZWWWTWTZZZZZTI9@@@+"
};
